X: 31855
T: Paul's
R: jig
M: 6/8
K: Dmajor
f2g|:a^ga bag|afd Ade|fdf g2f|e2B- Bcd|
e2f e2d|TcAc a3|1 a^ga ba=g|f3-f2a-:|2 a^ga bec|d3- dag||
|:f2A f2A|f3 Tf2e|def agf|g3 gef|
gba Tf2e|dcB A2a-|1 a^ga ba=g|f3-fag:|2 a^ga bec|d3||

